X:20
T:The Donegal Lass
C:Brian Finnegan
D:Brian Finnegan - When the Party's Over
R:jig
M:6/8
L:1/8
K:Amix
Ace aed | cdB A3 | GBd G3  | FAd F3  | Ace aed | cdB A2^g | aed cdB | A3 A3 ::
GBd G3  | FAd F3 | e3 ecA | e3 ecA | GBd G3  | FAd F2^g | aed cdB | A3 A3 :|
